assets/svg/check/errorOrSuccess.svg

<svg  viewBox="0 0 18 19"  xmlns="http://www.w3.org/2000/svg">
  <path fill-rule="evenodd" clip-rule="evenodd" d="M6.43435 3.30592C7.0568 2.59008 7.97538 2.13623 9 2.13623C10.0246 2.13623 10.9431 2.59004 11.5656 3.30581C12.512 3.23969 13.4825 3.56829 14.2071 4.29289C14.9317 5.01748 15.2603 5.98804 15.1942 6.93444C15.9099 7.55689 16.3636 8.47537 16.3636 9.49987C16.3636 10.5246 15.9097 11.4432 15.1938 12.0656C15.2598 13.0119 14.9312 13.9823 14.2067 14.7067C13.4822 15.4312 12.5119 15.7598 11.5656 15.6938C10.9432 16.4097 10.0246 16.8635 9 16.8635C7.97544 16.8635 7.05691 16.4097 6.43446 15.6939C5.48805 15.7601 4.51747 15.4315 3.79287 14.7069C3.06828 13.9823 2.73967 13.0117 2.8058 12.0653C2.09011 11.4428 1.63637 10.5244 1.63637 9.49987C1.63637 8.47531 2.09015 7.55679 2.80591 6.93434C2.73986 5.98802 3.06847 5.01754 3.793 4.29301C4.51753 3.56848 5.48802 3.23987 6.43435 3.30592ZM11.7267 8.1298C11.9085 7.87524 11.8495 7.52147 11.595 7.33964C11.3404 7.15781 10.9866 7.21677 10.8048 7.47133L8.36129 10.8923L7.1348 9.66577C6.91359 9.44456 6.55495 9.44456 6.33374 9.66577C6.11253 9.88698 6.11253 10.2456 6.33374 10.4668L8.03304 12.1661C8.15078 12.2839 8.31435 12.3438 8.48029 12.3301C8.64623 12.3164 8.79772 12.2303 8.8945 12.0948L11.7267 8.1298Z" fill="currentColor" />
</svg>

<svg xmlns="http://www.w3.org/2000/svg" viewBox="0 0 18 19"><path fill="currentColor" fill-rule="evenodd" d="M6.434 3.306A3.4 3.4 0 0 1 9 2.136c1.025 0 1.943.454 2.566 1.17a3.4 3.4 0 0 1 2.641.987 3.4 3.4 0 0 1 .987 2.641 3.4 3.4 0 0 1 1.17 2.566 3.4 3.4 0 0 1-1.17 2.566 3.4 3.4 0 0 1-.987 2.64 3.4 3.4 0 0 1-2.641.988A3.4 3.4 0 0 1 9 16.864a3.4 3.4 0 0 1-2.566-1.17 3.4 3.4 0 0 1-2.641-.987 3.4 3.4 0 0 1-.987-2.642A3.4 3.4 0 0 1 1.636 9.5c0-1.025.454-1.943 1.17-2.566a3.4 3.4 0 0 1 .987-2.641 3.4 3.4 0 0 1 2.641-.987m5.293 4.824a.567.567 0 0 0-.922-.659L8.36 10.892 7.135 9.666a.566.566 0 0 0-.801.8l1.699 1.7a.566.566 0 0 0 .862-.071z" clip-rule="evenodd"/></svg>
